!!!!SEGMENT: pl-kk--kk-i-7--086_anonim-tollite-portas.krn
!!!id: 16xx:925
!!!COM: Anonim
!!!OTL: Tollite portas
!!!PDT:
!!!SMS-siglum: PL-Kk
!!!SMS-shelfmark: Kk.I.7
!!!NIFC-rismID: 300258163
!!!URL-scan: http://repozytorium.nifc.pl/skany/pl-kk-nut--i-7
!!!ONB-nifc: UWAGA: C (skan 0072-0073, s.137-138), A (brak), T(0235, s.132-133), B(0322-0323, s.131-132). Następny utwór: Alleluia
!!!SMS-variant:
!!!SMS-altvar:
**kern	**text	**kern	**text	**kern	**kern	**text
*part4	*part4	*part3	*part3	*part2	*part1	*part1
*staff4	*staff4	*staff3	*staff3	*staff2	*staff1	*staff1
*I"[Baſso]	*	*I"[Tenore]	*	*I"[Alto]	*I"[Canto]	*
*I'B	*	*I'T	*	*I'A	*I'S	*
*clefF4	*	*clefC4	*	*clefC4	*clefC1	*
*k[b-]	*	*k[b-]	*	*k[b-]	*k[b-]	*
*F:	*	*F:	*	*F:	*F:	*
*M2/1	*	*M2/1	*	*M2/1	*M2/1	*
*met(C|)	*	*met(C|)	*	*	*met(C|)	*
=1-	=1-	=1-	=1-	=1-	=1-	=1-
!LO:TX:t=P:problem:znaki [B- BB-]	!	!	!	!	!	!
!LO:TX:a:i:t=Graduale de B. V. M per Annum.	!	!LO:TX:a:i:t=Graduale per Annum	!	!	!LO:TX:a:i:t=Graduale de B. V. M per Annum.	!
!LO:TX:t=P:problem:przed kluczem inicjał T	!	!LO:TX:t=P:problem:przed kluczem inicjał T	!	!	!LO:TX:t=P:problem:przed kluczem inicjał T	!
!	!	!	!	!LO:TX:t=P:problem:brak strony w źródle	!	!
00r	.	00r	.	0ryy	1f/	Tol-
*	*	*	*	*	*2\right	*
.	.	.	.	.	2.cc\	.
.	.	.	.	.	4cc\	-li-
=2-	=2-	=2-	=2-	=2-	=2-	=2-
.	.	.	.	0ryy	2a\	-te
!	!	!	!	!	!LO:TX:t=P:problem:kreska pseudotaktowa:między nutą a kropką	!
.	.	.	.	.	2.dd\	por-
.	.	.	.	.	4cc\	.
.	.	.	.	.	4b-\	.
.	.	.	.	.	4a\	.
=3-	=3-	=3-	=3-	=3-	=3-	=3-
!LO:TX:t=P:problem:kreska pseudotaktowa	!	!	!	!	!	!
0r	.	00r	.	0ryy	2g/	.
!	!	!	!	!	!LO:TX:t=P:problem:kreska pseudotaktowa:między nutą a kropką	!
.	.	.	.	.	2.cc\	.
.	.	.	.	.	4b-\	.
.	.	.	.	.	2a\	.
=4-	=4-	=4-	=4-	=4-	=4-	=4-
(1C/	Tol-	.	.	0ryy	1g\	.
!	!	!	!	!	!LO:TX:t=P:problem:oddech jako rozdzielacz słów, przeważnie na wysokości dźwięku poprzedzającego:global	!
1F\)	.	.	.	.	2a,\	-tas
.	.	.	.	.	2.a\	Prin-
=5-	=5-	=5-	=5-	=5-	=5-	=5-
1D\	-li-	0r	.	0ryy	.	.
.	.	.	.	.	4a\	-ci
!	!	!	!	!	!LO:TX:t=P:problem:kreska pseudotaktowa	!
.	.	.	.	.	2a,\	pes
!LO:TX:t=P:problem:kreska pseudotaktowa	!	!	!	!	!	!
1D\	-te	.	.	.	4d/	Ve-
.	.	.	.	.	4e/	.
.	.	.	.	.	4f/	.
.	.	.	.	.	4g/	.
=6-	=6-	=6-	=6-	=6-	=6-	=6-
!	!	!LO:TX:t=P:problem:kreska pseudotaktowa	!	!	!	!
1F\	por-	1r	.	0ryy	4a\	.
.	.	.	.	.	4b-\	.
.	.	.	.	.	4cc\	.
!	!	!	!	!	!LO:TX:t=P:problem:kreska pseudotaktowa	!
.	.	.	.	.	4a\	.
1D\	.	1F/	Tol-	.	1dd\	.
=7-	=7-	=7-	=7-	=7-	=7-	=7-
*	*	*2\right	*	*	*	*
!LO:TX:t=P:problem:kreska pseudotaktowa	!	!	!	!	!	!
1E\	.	2.c\	.	0ryy	2g/	.
.	.	.	.	.	1cc\	.
!	!	!LO:TX:t=P:problem:kreska pseudotaktowa	!	!	!	!
.	.	4c\	-li-	.	.	.
1F\	.	2A\	-te	.	.	.
!	!	!	!	!	!LO:TX:t=P:problem:kreska pseudotaktowa	!
.	.	2.d\	por-	.	2a\	-stras
=8-	=8-	=8-	=8-	=8-	=8-	=8-
1D\	.	.	.	0ryy	2r	.
.	.	4c\	.	.	.	.
!	!	!LO:TX:t=P:problem:kreska pseudotaktowa	!	!	!	!
.	.	2B-\	.	.	2f/	tol-
!LO:TX:t=P:problem:kreska pseudotaktowa	!	!	!	!	!	!
1C/	.	2G/	.	.	2.cc\	.
.	.	2.c\	.	.	.	.
.	.	.	.	.	4cc\	-li-
=9-	=9-	=9-	=9-	=9-	=9-	=9-
1F\	.	.	.	0ryy	2a\	-te
.	.	4B-\	.	.	.	.
.	.	1A\	.	.	4f/	por-
!	!	!	!	!	!LO:TX:t=P:problem:kreska pseudotaktowa	!
.	.	.	.	.	4g/	.
1C/	.	.	.	.	4a\	.
.	.	.	.	.	4b-\	.
!	!	!LO:TX:t=P:problem:kreska pseudotaktowa	!	!	!	!
.	.	2G/	.	.	2cc\	.
=10-	=10-	=10-	=10-	=10-	=10-	=10-
!LO:TX:t=P:problem:kreska pseudotaktowa	!	!	!	!	!	!
1D\	.	2F/	-tas	0ryy	2a,\	-tas
!	!	!	!	!	!LO:TX:t=P:problem:kreska pseudotaktowa	!
!	!	!	!	!	!LO:SIC:v:t=custos cc	!
.	.	2.A\	Prin-	.	2f/	Prin-
!	!	!	!	!	!LO:LB:g=original	!
1F\	.	.	.	.	2.cc\	.
.	.	4A\	-ci-	.	.	.
!	!	!LO:TX:t=P:problem:kreska pseudotaktowa	!	!	!	!
.	.	2A\	-pes	.	.	.
.	.	.	.	.	8b-\L	.
!	!	!	!	!	!LO:TX:t=P:problem:kreska pseudotaktowa	!
.	.	.	.	.	8a\J	.
=11-	=11-	=11-	=11-	=11-	=11-	=11-
1G\	.	2B-\	ve-	0ryy	4g\	.
.	.	.	.	.	4a\	.
.	.	2G/	.	.	4b-\	.
.	.	.	.	.	4cc\	.
!LO:TX:t=P:problem:kreska pseudotaktowa	!	!	!	!	!	!
1A\	.	2.c\	.	.	2.a\	.
!	!	!LO:TX:t=P:problem:kreska pseudotaktowa	!	!	!	!
.	.	4B-\	.	.	4a\	-ci-
=12-	=12-	=12-	=12-	=12-	=12-	=12-
1F\	.	1A\	.	0ryy	2a,\	-pes
.	.	.	.	.	1dd\	Ve-
1E\	.	1G/	.	.	.	.
!	!	!	!	!	!LO:TX:t=P:problem:kreska pseudotaktowa	!
.	.	.	.	.	2cc\	.
=13-	=13-	=13-	=13-	=13-	=13-	=13-
!	!	!LO:TX:t=P:problem:kreska pseudotaktowa	!	!	!	!
1D\	.	0A\	-stras	0ryy	2dd\	.
!	!	!	!	!	!LO:TX:t=P:problem:kreska pseudotaktowa	!
.	.	.	.	.	2a,\	-stras
(1D\	-tas	.	.	.	4d/	ve-
.	.	.	.	.	4e/	.
.	.	.	.	.	4f/	.
.	.	.	.	.	4g/	.
=14-	=14-	=14-	=14-	=14-	=14-	=14-
!LO:TX:t=P:problem:kreska pseudotaktowa	!	!	!	!	!	!
1C/)	.	0r	.	0ryy	4e/	.
.	.	.	.	.	4f/	.
.	.	.	.	.	4g/	.
!	!	!	!	!	!LO:TX:t=P:problem:kreska pseudotaktowa	!
.	.	.	.	.	4e/	.
1C/	prin-	.	.	.	2a\	.
!	!	!	!	!	!LO:TX:t=P:problem:kreska pseudotaktowa	!
.	.	.	.	.	2a\	-stras
=15-	=15-	=15-	=15-	=15-	=15-	=15-
1BB-/	.	4D/	Prin-	0ryy	2r	.
.	.	4E/	.	.	.	.
.	.	4F/	.	.	(2g\	tol-
.	.	4G/	.	.	.	.
!LO:TX:t=P:problem:kreska pseudotaktowa	!	!	!	!	!	!
1C/	.	2E/	.	.	2.cc\)	.
!	!	!LO:TX:t=P:problem:kreska pseudotaktowa	!	!	!	!
!	!	!LO:SIC:v:t=custos A	!	!	!	!
.	.	[2A/	.	.	.	.
.	.	.	.	.	4cc\	-li-
!	!	!LO:LB:g=original	!	!	!	!
=16-	=16-	=16-	=16-	=16-	=16-	=16-
!	!	!LO:N:xstem:cue	!	!	!	!
1D\	.	4A/]	.	0ryy	2a,\	-te
.	.	4G/	.	.	.	.
!	!	!LO:TX:t=P:problem:kreska pseudotaktowa	!	!	!	!
.	.	2F/	.	.	2dd\	por-
(1C/	.	2.c\	.	.	2g\	.
!	!	!	!	!	!LO:TX:t=P:problem:kreska pseudotaktowa	!
.	.	.	.	.	2cc\	.
.	.	4B-\	.	.	.	.
=17-	=17-	=17-	=17-	=17-	=17-	=17-
1D\)	.	2A\	.	0ryy	2a\	-tas
!	!	!	!	!	!LO:TX:t=P:problem:kreska pseudotaktowa	!
.	.	2.d\	.	.	2r	.
1D\	-ci-	.	.	.	2r	.
.	.	4c\	-ci-	.	.	.
!	!	!LO:TX:t=P:problem:kreska pseudotaktowa	!	!	!	!
.	.	2B-\	-pes	.	2f/	por-
=18-	=18-	=18-	=18-	=18-	=18-	=18-
!LO:TX:t=P:problem:kreska pseudotaktowa	!	!	!	!	!	!
1F\,	-pes	1A\	Ve-	0ryy	2a\	.
.	.	.	.	.	2f/	.
1G\	Ve-	2G/	.	.	2b-\	-tas
!	!	!	!	!	!LO:TX:t=P:problem:kreska pseudotaktowa	!
.	.	2B-/	.	.	2g\	Ve-
=19-	=19-	=19-	=19-	=19-	=19-	=19-
!	!	!LO:TX:t=P:problem:kreska pseudotaktowa	!	!	!	!
1F\	.	0A\	-stras	0ryy	4cc\	.
.	.	.	.	.	4b-\	.
.	.	.	.	.	4a\	.
.	.	.	.	.	4g\	.
1D\	.	.	.	.	2f,/	-stras
!	!	!	!	!	!LO:TX:t=P:problem:kreska pseudotaktowa	!
.	.	.	.	.	2f/	et
=20-	=20-	=20-	=20-	=20-	=20-	=20-
!	!	!LO:TX:t=P:problem:kreska pseudotaktowa	!	!	!	!
1F\	-stras	0r	.	0ryy	2a\	e-
!	!	!	!	!	!LO:TX:t=P:problem:kreska pseudotaktowa	!
!	!	!	!	!	!LO:SIC:v:t=custos ff	!
.	.	.	.	.	2cc\	-le-
!	!	!	!	!	!LO:LB:g=original	!
!LO:TX:t=P:problem:kreska pseudotaktowa	!	!	!	!	!	!
1D\	.	.	.	.	2ff\	-va-
.	.	.	.	.	4ff\	-mi-
.	.	.	.	.	4ff\	-ni
=21-	=21-	=21-	=21-	=21-	=21-	=21-
0r	.	1F/	et	0ryy	4cc\	por-
.	.	.	.	.	4b-\	.
.	.	.	.	.	4a\	.
.	.	.	.	.	4g\	.
.	.	1F/	e-	.	4f/	.
.	.	.	.	.	4g/	.
.	.	.	.	.	4a/	.
!	!	!	!	!	!LO:TX:t=P:problem:kreska pseudotaktowa	!
.	.	.	.	.	4b-/	.
=22-	=22-	=22-	=22-	=22-	=22-	=22-
!LO:TX:t=P:problem:kreska pseudotaktowa	!	!	!	!	!	!
*	*	*lig	*	*	*	*
1r	.	1F/	-le-	0ryy	4cc\	.
.	.	.	.	.	4a\	.
.	.	.	.	.	2.dd\	.
!LO:LB:g=original	!	!	!	!	!	!
2r	.	1G/	.	.	.	.
.	.	.	.	.	4b-\	.
2C/	et	.	.	.	1cc\	.
*	*	*Xlig	*	*	*	*
=23-	=23-	=23-	=23-	=23-	=23-	=23-
*2\right	*	*lig	*	*	*	*
2E\	e-	1G/	-va-	0ryy	.	.
!LO:TX:t=P:problem:kreska pseudotaktowa	!	!	!	!	!LO:TX:t=P:problem:kreska pseudotaktowa	!
2G\	-le-	.	.	.	2bn\	.
!	!	!	!	!	!LO:TX:t=P:problem:kreska pseudotaktowa	!
2c\	-va-	1E/	.	.	1cc\	-tae
4c\	-mi-	.	.	.	.	.
4c\	-ni	.	.	.	.	.
!LO:TX:t=P:problem:kreska pseudotaktowa	!	!	!	!	!	!
*	*	*Xlig	*	*	*	*
=24-	=24-	=24-	=24-	=24-	=24-	=24-
*	*	*lig	*	*	*	*
!	!	!	!	!	!LO:TX:a:t=2.	!
2.F\	por-	1F/	.	0ryy	0r	.
8E\L	.	.	.	.	.	.
!LO:TX:t=P:problem:kreska pseudotaktowa	!	!	!	!	!	!
8F\J	.	.	.	.	.	.
2G\	.	1D/	.	.	.	.
2GG/	.	.	.	.	.	.
*	*	*Xlig	*	*	*	*
=25-	=25-	=25-	=25-	=25-	=25-	=25-
*	*	*lig	*	*	*	*
2C/	-tae	1C/	-mi-	0ryy	2g\	ae-
!LO:TX:t=P:problem:kreska pseudotaktowa	!	!	!	!	!LO:TX:t=P:problem:kreska pseudotaktowa	!
2r	.	.	.	.	2g/	-ter-
1GG/	ae-	1D/	.	.	1b-\	-na-
*	*	*Xlig	*	*	*	*
=26-	=26-	=26-	=26-	=26-	=26-	=26-
!	!	!LO:TX:t=P:problem:kreska pseudotaktowa	!	!	!	!
1BB-/	-ter-	1D/,	-ni	0ryy	4f/	.
.	.	.	.	.	4g/	.
.	.	.	.	.	4a\	.
!	!	!	!	!	!LO:TX:t=P:problem:kreska pseudotaktowa	!
.	.	.	.	.	4b-\	.
*	*	*lig	*	*	*	*
2AA/	-na-	1F/	por-	.	2cc\	.
1D\	.	.	.	.	1a\	.
=27-	=27-	=27-	=27-	=27-	=27-	=27-
.	.	1D/	.	0ryy	.	.
4BB-/	.	.	.	.	1b-\	.
4C/	.	.	.	.	.	.
!LO:TX:t=P:problem:kreska pseudotaktowa	!	!	!	!	!	!
*	*	*Xlig	*	*	*	*
*	*	*lig	*	*	*	*
4D\	.	1F/	.	.	.	.
4E\	.	.	.	.	.	.
!	!	!	!	!	!LO:TX:t=P:problem:kreska pseudotaktowa	!
2F\	.	.	.	.	2a\	.
=28-	=28-	=28-	=28-	=28-	=28-	=28-
2C/	.	1G/	.	0ryy	2cc\	.
2G\	.	.	.	.	1b-\	.
*	*	*Xlig	*	*	*	*
!LO:TX:t=P:problem:kreska pseudotaktowa	!	!	!	!	!	!
*	*	*lig	*	*	*	*
1D\,	-les	1D/	.	.	.	.
.	.	.	.	.	2a\	.
=29-	=29-	=29-	=29-	=29-	=29-	=29-
!	!	!	!	!	!LO:TX:t=P:problem:kreska pseudotaktowa	!
2GG/	ae-	1G/	.	0ryy	1b-\	-les
2C/	-ter-	.	.	.	.	.
*	*	*Xlig	*	*	*	*
!	!	!	!	!	!LO:TX:t=P:problem:kreska pseudotaktowa	!
!	!	!	!	!	!LO:TX:a:t=1.	!
2.F\	-na-	1A\	.	.	1r	.
4E\	.	.	.	.	.	.
=30-	=30-	=30-	=30-	=30-	=30-	=30-
*	*	*lig	*	*	*	*
4D\	.	1F/	.	0ryy	2r	.
4E\	.	.	.	.	.	.
4D\	.	.	.	.	2f/	et
!LO:TX:t=P:problem:kreska pseudotaktowa	!	!	!	!	!	!
4C/	.	.	.	.	.	.
4BB-/	.	1D/	.	.	2b-\	e-
4C/	.	.	.	.	.	.
4D/	.	.	.	.	1b-\	-le-
4E/	.	.	.	.	.	.
*	*	*Xlig	*	*	*	*
=31-	=31-	=31-	=31-	=31-	=31-	=31-
*	*	*lig	*	*	*	*
2F\	.	1F/	-tae	0ryy	.	.
!LO:TX:t=P:problem:kreska pseudotaktowa	!	!	!	!	!	!
2FF/	-les	.	.	.	2a\	.
!	!	!LO:TX:t=P:problem:kreska pseudotaktowa	!	!	!	!
2r	.	1D/	.	.	2b-\	-va-
!LO:TX:t=P:problem:kreska pseudotaktowa	!	!	!	!	!	!
!LO:SIC:v:t=custos AA	!	!	!	!	!	!
2BB-/	ae-	.	.	.	4f/	-mi-
.	.	.	.	.	4f/	-ni
!	!	!	!	!	!LO:TX:t=P:problem:kreska pseudotaktowa	!
*	*	*Xlig	*	*	*	*
!LO:LB:g=original	!	!	!	!	!	!
=32-	=32-	=32-	=32-	=32-	=32-	=32-
2.AA/	-ter-	1C/	ae-	0ryy	2.cc\	por-
4GG/	.	.	.	.	4b-\	.
!	!	!LO:SIC:v:t=custos C	!	!	!	!
4FF/	.	1C/	-ter-	.	4a\	.
4GG/	.	.	.	.	4b-\	.
4AA/	.	.	.	.	4a\	.
!	!	!	!	!	!LO:TX:t=P:problem:kreska pseudotaktowa	!
4BB-/	.	.	.	.	4g\	.
!	!	!LO:PB:g=original	!	!	!LO:LB:g=original	!
=33-	=33-	=33-	=33-	=33-	=33-	=33-
2C/	-na-	1C/	-na-	0ryy	2f/	.
!LO:TX:t=P:problem:kreska pseudotaktowa	!	!	!	!	!	!
2C/	-les	.	.	.	2c/	-tae
2r	.	1BB-/	.	.	2c/	ae-
!LO:TX:t=P:problem:kreska pseudotaktowa	!	!	!	!	!	!
2GG/	/ae-	.	.	.	2g\	-ter-
=34-	=34-	=34-	=34-	=34-	=34-	=34-
!	!	!	!	!	!LO:TX:t=P:problem:kreska pseudotaktowa	!
2C/	-ter-	1C/	.	0ryy	1g\	-na-
1C/	-na-	.	.	.	.	.
.	.	1D/	.	.	2a\	.
!LO:TX:t=P:problem:kreska pseudotaktowa	!	!	!	!	!	!
2BB-/	.	.	.	.	2b-\	.
=35-	=35-	=35-	=35-	=35-	=35-	=35-
2C,/	-les/	1C/	.	0ryy	2g\	.
4FF/	ae-	.	.	.	2a\	.
4FF/	-ter-	.	.	.	.	.
!	!	!	!	!	!LO:TX:t=P:problem:kreska pseudotaktowa	!
2.BB-/	-na-	1D/	.	.	1f/	-les
4AA/	.	.	.	.	.	.
=36-	=36-	=36-	=36-	=36-	=36-	=36-
*	*	*lig	*	*	*	*
!	!	!	!	!	!LO:TX:t=P:problem:kreska pseudotaktowa	!
4GG/	.	1D/	-les	0ryy	1r	.
4AA/	.	.	.	.	.	.
4BB-/	.	.	.	.	.	.
!LO:TX:t=P:problem:kreska pseudotaktowa	!	!	!	!	!	!
4C/	.	.	.	.	.	.
2D/	.	1F/	.	.	2r	.
2BB-/	.	.	.	.	2b-\	ae-
*	*	*Xlig	*	*	*	*
=37-	=37-	=37-	=37-	=37-	=37-	=37-
2E-X\	.	1G/	.	0ryy	2g\	-ter-
!LO:TX:t=P:problem:kreska pseudotaktowa	!	!	!	!	!	!
2E-\	-les	.	.	.	2b-\	-na-
2r	.	0F/	.	.	4f/	.
.	.	.	.	.	4g/	.
2F\	ae-	.	.	.	4a/	.
!	!	!	!	!	!LO:TX:t=P:problem:kreska pseudotaktowa	!
.	.	.	.	.	4f/	.
=38-	=38-	=38-	=38-	=38-	=38-	=38-
2D\	-ter-	.	.	0ryy	2b-,\	-les
2F\	-na-	.	.	.	2b-\	ae-
4BB-/	.	1D/	.	.	2b-\	-ter-
4C/	.	.	.	.	.	.
4D/	.	.	.	.	1b-\	-na-
!LO:TX:t=P:problem:kreska pseudotaktowa	!	!	!	!	!	!
4E/	.	.	.	.	.	.
=39-	=39-	=39-	=39-	=39-	=39-	=39-
*	*	*lig	*	*	*	*
1F\	.	1F/	.	0ryy	.	.
.	.	.	.	.	2a\	.
!	!	!LO:TX:t=P:problem:kreska pseudotaktowa	!	!	!LO:TX:t=P:problem:kreska pseudotaktowa	!
2BB-,/	-les	1D/	.	.	1b-\	-les
2F\	et	.	.	.	.	.
!LO:TX:t=P:problem:kreska pseudotaktowa	!	!	!	!	!	!
*	*	*Xlig	*	*	*	*
=40-	=40-	=40-	=40-	=40-	=40-	=40-
!	!	!LO:TX:t=P:problem:kreska pseudotaktowa	!	!	!	!
2A\	in-	1r	.	0ryy	2r	.
2F\	-tro-	.	.	.	2f/	et
4c\	-i-	1F/	et	.	2a\	in-
4d\	.	.	.	.	.	.
!	!	!	!	!	!LO:TX:t=P:problem:kreska pseudotaktowa	!
4c\	.	.	.	.	2f/	-tro-
4B-\	.	.	.	.	.	.
=41-	=41-	=41-	=41-	=41-	=41-	=41-
4A\	.	1F/	in-	0ryy	4cc\	-i-
4B-\	.	.	.	.	4dd\	.
4A\	.	.	.	.	4cc\	.
!LO:TX:t=P:problem:kreska pseudotaktowa	!	!	!	!	!	!
!LO:SIC:v:t=custos F	!	!	!	!	!	!
4G\	.	.	.	.	4b-\	.
!LO:LB:g=original	!	!	!	!	!	!
2F\	.	1F/	-tro-	.	4a\	.
.	.	.	.	.	4b-\	.
!LO:TX:t=P:problem:kreska pseudotaktowa	!	!	!	!	!	!
2F\	-bit	.	.	.	4a\	.
!	!	!	!	!	!LO:TX:t=P:problem:kreska pseudotaktowa	!
.	.	.	.	.	4g\	.
=42-	=42-	=42-	=42-	=42-	=42-	=42-
*	*	*lig	*	*	*	*
1r	.	1F/	-i-	0ryy	2f/	.
!	!	!	!	!	!LO:TX:t=P:problem:kreska pseudotaktowa	!
.	.	.	.	.	2f/	-bit
2r	.	1E/	.	.	2r	.
2C/	et	.	.	.	2g\	et
!LO:TX:t=P:problem:kreska pseudotaktowa	!	!	!	!	!LO:TX:t=P:problem:kreska pseudotaktowa	!
*	*	*Xlig	*	*	*	*
=43-	=43-	=43-	=43-	=43-	=43-	=43-
*	*	*lig	*	*	*	*
2E\	in-	1G/	.	0ryy	2g\	in-
2C/	-tro-	.	.	.	1cc\	-tro-
4F\	-i-	1A\	.	.	.	.
4G\	.	.	.	.	.	.
4F\	.	.	.	.	1a\	-i-
4E\	.	.	.	.	.	.
*	*	*Xlig	*	*	*	*
=44-	=44-	=44-	=44-	=44-	=44-	=44-
1D\	.	1F/	.	0ryy	.	.
!	!	!	!	!	!LO:TX:t=P:problem:kreska pseudotaktowa	!
!	!	!	!	!	!LO:SIC:v:t=custos a	!
.	.	.	.	.	2a\	-bit
!	!	!	!	!	!LO:LB:g=original	!
1AA/	.	1E/	.	.	2r	.
!	!	!	!	!	!LO:TX:t=P:problem:kreska pseudotaktowa	!
.	.	.	.	.	2a\	Rex
=45-	=45-	=45-	=45-	=45-	=45-	=45-
!LO:TX:t=P:problem:kreska pseudotaktowa	!	!LO:TX:t=P:problem:kreska pseudotaktowa	!	!	!	!
1D\	-bit	1D/	-bit	0ryy	4f/	glo-
.	.	.	.	.	4e/	.
.	.	.	.	.	4f/	.
.	.	.	.	.	4d/	.
*	*	*lig	*	*	*	*
!LO:TX:t=P:problem:kreska pseudotaktowa	!	!	!	!	!	!
00r	.	1D/	.	.	4a\	.
.	.	.	.	.	4g\	.
.	.	.	.	.	4a\	.
!	!	!	!	!	!LO:TX:t=P:problem:kreska pseudotaktowa	!
.	.	.	.	.	4b-\	.
=46-	=46-	=46-	=46-	=46-	=46-	=46-
.	.	1F/	.	0ryy	4cc\	.
.	.	.	.	.	4a\	.
.	.	.	.	.	1dd\	.
*	*	*Xlig	*	*	*	*
.	.	1E/	.	.	.	.
!	!	!	!	!	!LO:TX:t=P:problem:kreska pseudotaktowa	!
.	.	.	.	.	2cc#X\	-ri-
=47-	=47-	=47-	=47-	=47-	=47-	=47-
*	*	*lig	*	*	*	*
.	.	1D/	.	0ryy	2dd,\	-ae
!	!	!	!	!	!LO:TX:t=P:problem:kreska pseudotaktowa	!
.	.	.	.	.	2a\	Rex
2r	.	1F/	.	.	4f/	glo-
.	.	.	.	.	4e/	.
2D/	Rex	.	.	.	4f/	.
.	.	.	.	.	4d/	.
*	*	*Xlig	*	*	*	*
=48-	=48-	=48-	=48-	=48-	=48-	=48-
4C/	glo-	1C/	.	0ryy	2.a\	.
4BB-/	.	.	.	.	.	.
4C/	.	.	.	.	.	.
!LO:TX:t=P:problem:kreska pseudotaktowa	!	!	!	!	!	!
4AA/	.	.	.	.	4g/	-ri-
!	!	!	!	!	!LO:TX:t=P:problem:kreska pseudotaktowa	!
2.BB-/	.	1BB-/,	.	.	1f/	-ae
4AA/	-ri-	.	.	.	.	.
=49-	=49-	=49-	=49-	=49-	=49-	=49-
2BB-,/	-ae	1BB-/	Rex	0ryy	2r	.
!LO:TX:t=P:problem:kreska pseudotaktowa	!	!	!	!	!	!
2GG/	Rex	.	.	.	2b-\	et
4C/	glo-	1C/	.	.	2a\	in-
4BB-/	.	.	.	.	.	.
!	!	!	!	!	!LO:TX:t=P:problem:kreska pseudotaktowa	!
4C/	.	.	.	.	2cc\	-tro-
4AA/	.	.	.	.	.	.
=50-	=50-	=50-	=50-	=50-	=50-	=50-
*	*	*lig	*	*	*	*
2.D/	.	1D/	.	0ryy	2.a\	-i-
!LO:TX:t=P:problem:kreska pseudotaktowa	!	!	!	!	!	!
4C/	-ri-	.	.	.	4a\	-bit
2D,/	-ae	1F/	.	.	2a\	et
2AA/	rex	.	.	.	2cc\	in-
!LO:TX:t=P:problem:kreska pseudotaktowa	!	!	!	!	!LO:TX:t=P:problem:kreska pseudotaktowa	!
*	*	*Xlig	*	*	*	*
=51-	=51-	=51-	=51-	=51-	=51-	=51-
*	*	*lig	*	*	*	*
2FF/	glo-	1C/	glo-	0ryy	4a\	-tro-
.	.	.	.	.	4g\	.
2AA/	.	.	.	.	4a\	.
.	.	.	.	.	4f/	.
2BB-/	.	1D/	.	.	2.b-\	.
2GG/	.	.	.	.	.	.
.	.	.	.	.	4g/	.
!LO:TX:t=P:problem:kreska pseudotaktowa	!	!	!	!	!	!
*	*	*Xlig	*	*	*	*
=52-	=52-	=52-	=52-	=52-	=52-	=52-
*	*	*lig	*	*	*	*
2.AA/	.	1F/	.	0ryy	4cc\	.
.	.	.	.	.	4b-\	.
.	.	.	.	.	4cc\	.
!	!	!	!	!	!LO:TX:t=P:problem:kreska pseudotaktowa	!
4AA/	-ri-	.	.	.	4a\	.
!	!	!LO:SIC:v:t=custos F	!	!	!	!
!	!	!LO:TX:t=P:problem:kreska pseudotaktowa	!	!	!	!
2BB-/	-ae,	1D/	.	.	2.dd\	.
2D\	rex	.	.	.	.	.
.	.	.	.	.	4b-\	.
!LO:TX:t=P:problem:kreska pseudotaktowa	!	!	!	!	!	!
*	*	*Xlig	*	*	*	*
!	!	!LO:LB:g=original	!	!	!	!
=53-	=53-	=53-	=53-	=53-	=53-	=53-
*	*	*lig	*	*	*	*
2AA/	glo-	1F/	.	0ryy	2cc\	.
2.BB-/	.	.	.	.	2.dd\	.
.	.	1G/	.	.	.	.
4AA/	.	.	.	.	4cc\	.
2GG/	.	.	.	.	4b-\	.
.	.	.	.	.	4a\	.
!	!	!	!	!	!LO:TX:t=P:problem:kreska pseudotaktowa	!
!LO:TX:t=P:problem:kreska pseudotaktowa	!	!	!	!	!LO:SIC:v:t=custos g	!
*	*	*Xlig	*	*	*	*
!LO:LB:g=original	!	!	!	!	!LO:LB:g=original	!
=54-	=54-	=54-	=54-	=54-	=54-	=54-
*	*	*lig	*	*	*	*
2C/	.	1G/	.	0ryy	2g\	.
2C/	-ri-	.	.	.	2g\	-i-
!	!	!	!	!	!LO:TX:t=P:problem:kreska pseudotaktowa	!
2FF/	-ae	1F/	.	.	1a\	-bit
2F\	rex	.	.	.	.	.
!LO:TX:t=P:problem:kreska pseudotaktowa	!	!	!	!	!	!
*	*	*Xlig	*	*	*	*
=55-	=55-	=55-	=55-	=55-	=55-	=55-
*	*	*lig	*	*	*	*
4E\	glo-	1G/	.	0ryy	2r	.
4D\	.	.	.	.	.	.
4E\	.	.	.	.	2cc\	Rex
!LO:TX:t=P:problem:kreska pseudotaktowa	!	!	!	!	!	!
4C/	.	.	.	.	.	.
4F\	.	1A\	.	.	4a\	glo-
4FF/	.	.	.	.	4g\	.
4AA/	.	.	.	.	4a\	.
4BB-/	.	.	.	.	4f/	.
!LO:TX:t=P:problem:kreska pseudotaktowa	!	!	!	!	!	!
*	*	*Xlig	*	*	*	*
=56-	=56-	=56-	=56-	=56-	=56-	=56-
2C/	.	1G/	-ri-	0ryy	2.cc\	.
2C/	-ri-	.	.	.	.	.
.	.	.	.	.	4cc\	-ri-
!	!	!LO:TX:a:t=4	!	!	!	!
2FF,/	-ae	[y00F/	-ae.	.	2cc,\	-ae
!LO:TX:t=P:problem:kreska pseudotaktowa	!	!	!	!	!LO:TX:t=P:problem:kreska pseudotaktowa	!
2AA/	/rex	.	.	.	2a\	/Rex
=57-	=57-	=57-	=57-	=57-	=57-	=57-
1.BB-/	glo-	.	.	0ryy	1.dd\	glo-
2BB-/	-ri-	.	.	.	2dd\	-ri-
=58-	=58-	=58-	=58-	=58-	=58-	=58-
0FF/;	-ae/	.	.	0ryy	0cc\;	-ae/
.	.	1Fyy/]	.	.	.	.
=59||-	=59||-	=59||-	=59||-	=59||-	=59||-	=59||-
*M2/1	*	*M2/1	*	*M2/1	*M2/1	*
*met(C|)	*	*met(C|)	*	*	*met(C|)	*
!LO:TX:t=P:problem:kreska pseudotaktowa	!	!	!	!	!LO:TX:t=P:problem:kreska pseudotaktowa	!
1D\	Quis	00r	.	0ryy	1r	.
2D\	a-	.	.	.	1a\	Quis
1F\	-scen-	.	.	.	.	.
=60-	=60-	=60-	=60-	=60-	=60-	=60-
.	.	.	.	0ryy	2a\	a-
1E\	.	.	.	.	1cc\	-ſcen-
!LO:TX:t=P:problem:kreska pseudotaktowa	!	!	!	!	!	!
[<2F\	.	.	.	.	1a\	.
=61-	=61-	=61-	=61-	=61-	=61-	=61-
2F\]	.	00r	.	0ryy	.	.
!	!	!	!	!	!LO:TX:t=P:problem:kreska pseudotaktowa	!
1G\	.	.	.	.	2b-\	.
.	.	.	.	.	2cc#X\	.
1F\	.	.	.	.	1dd\	.
=62-	=62-	=62-	=62-	=62-	=62-	=62-
.	.	.	.	0ryy	.	.
!LO:TX:t=P:problem:kreska pseudotaktowa	!	!	!	!	!	!
2E\	.	.	.	.	2cc#X\	.
!	!	!	!	!	!LO:TX:t=P:problem:kreska pseudotaktowa	!
1D\	.	.	.	.	1dd\	-det
=63-	=63-	=63-	=63-	=63-	=63-	=63-
!	!	!LO:TX:t=P:problem:kreska pseudotaktowa	!	!	!LO:TX:t=P:problem:kreska pseudotaktowa	!
1A\	.	1r	.	0ryy	0r	.
!LO:TX:t=P:problem:kreska pseudotaktowa	!	!	!	!	!	!
1D\,	-det	1D/	Quis	.	.	.
=64-	=64-	=64-	=64-	=64-	=64-	=64-
*	*	*lig	*	*	*	*
0r	.	1D/	a-	0ryy	1a\	quis
.	.	1F/	.	.	1a\	a-
*	*	*Xlig	*	*	*	*
=65-	=65-	=65-	=65-	=65-	=65-	=65-
!LO:TX:t=P:problem:kreska pseudotaktowa	!	!	!	!	!	!
1r	.	1E/	-scen-	0ryy	2.cc\	-scen-
.	.	.	.	.	4b-\	.
*	*	*lig	*	*	*	*
2r	.	1F/	.	.	2a\	.
2D\	quis	.	.	.	2dd\	.
=66-	=66-	=66-	=66-	=66-	=66-	=66-
2G,\	/quis/	1G/	.	0ryy	2b-\	.
2E\	a-	.	.	.	1cc\	.
!LO:TX:t=P:problem:kreska pseudotaktowa	!	!	!	!	!	!
*	*	*Xlig	*	*	*	*
!	!	!LO:TX:t=P:problem:kreska pseudotaktowa	!	!	!	!
1G\	-ſcen-	1G/	-det	.	.	.
!	!	!	!	!	!LO:TX:t=P:problem:kreska pseudotaktowa	!
!	!	!	!	!	!LO:SIC:v:t=custos cc	!
.	.	.	.	.	2b-\	.
!	!	!	!	!	!LO:LB:g=original	!
=67-	=67-	=67-	=67-	=67-	=67-	=67-
2C/	-det	1G/,	in	0ryy	2cc,\	-det
!LO:TX:t=P:problem:kreska pseudotaktowa	!	!	!	!	!	!
2r	.	.	.	.	2cc\	in
0r	.	1G/	mon-	.	2bn\	mon-
.	.	.	.	.	2cc,\	-tem
!LO:LB:g=original	!	!	!	!	!	!
=68-	=68-	=68-	=68-	=68-	=68-	=68-
!LO:TX:t=P:problem:kreska pseudotaktowa	!	!LO:TX:t=P:problem:kreska pseudotaktowa	!	!	!	!
.	.	1G/	-tem	0ryy	2bn\	/mon-
!	!	!	!	!	!LO:TX:t=P:problem:kreska pseudotaktowa	!
.	.	.	.	.	2cc\	-tem/
*	*	*lig	*	*	*	*
2r	.	1G/	Do-	.	2a\	Do-
!LO:TX:t=P:problem:kreska pseudotaktowa	!	!	!	!	!	!
2C/	in	.	.	.	2cc\	-mi-
=69-	=69-	=69-	=69-	=69-	=69-	=69-
2F\	mon-	1F/	.	0ryy	2cc,\	-ni
1F\	.	.	.	.	2f/	in
*	*	*Xlig	*	*	*	*
*	*	*lig	*	*	*	*
.	.	1G/	.	.	2b-\	mon-
!LO:TX:t=P:problem:kreska pseudotaktowa	!	!	!	!	!	!
2E\	.	.	.	.	2cc\	.
=70-	=70-	=70-	=70-	=70-	=70-	=70-
2D/	.	1A\	.	0ryy	2a\	-tem
2C/	.	.	.	.	1f/	Do-
*	*	*Xlig	*	*	*	*
*	*	*lig	*	*	*	*
2BB-/	.	1B-\	.	.	.	.
!LO:TX:t=P:problem:kreska pseudotaktowa	!	!	!	!	!LO:TX:t=P:problem:kreska pseudotaktowa	!
2GG,/	-tem	.	.	.	2b-\	.
=71-	=71-	=71-	=71-	=71-	=71-	=71-
2C/	Do-	1G/	.	0ryy	2.cc\	.
2C/	-mi-	.	.	.	.	.
.	.	.	.	.	4cc\	-mi-
*	*	*Xlig	*	*	*	*
!	!	!	!	!	!LO:TX:t=P:problem:kreska pseudotaktowa	!
2FF,/	-ni	1F/	-mi-	.	1a\	-ni
!LO:TX:t=P:problem:kreska pseudotaktowa	!	!	!	!	!	!
2D\	quis	.	.	.	.	.
=72-	=72-	=72-	=72-	=72-	=72-	=72-
*	*	*lig	*	*	*	*
2D\	a-	1F/	-ni	0ryy	2r	.
1F\	-ſcen-	.	.	.	2a\	quis
.	.	1G/	.	.	2g\	a-
2E\	.	.	.	.	1cc\	-scen-
!LO:TX:t=P:problem:kreska pseudotaktowa	!	!	!	!	!	!
*	*	*Xlig	*	*	*	*
=73-	=73-	=73-	=73-	=73-	=73-	=73-
2.F\	.	1A\	.	0ryy	.	.
.	.	.	.	.	2a\	.
4D\	.	.	.	.	.	.
!	!	!	!	!	!LO:TX:t=P:problem:kreska pseudotaktowa	!
1.G\	.	1G/	.	.	1b-\	.
=74-	=74-	=74-	=74-	=74-	=74-	=74-
.	.	1A\	.	0ryy	2cc\	.
2F\	.	.	.	.	1dd\	.
*	*	*lig	*	*	*	*
2D\	.	1A\	.	.	.	.
!LO:TX:t=P:problem:kreska pseudotaktowa	!	!	!	!	!	!
2F\	.	.	.	.	2dd\	.
=75-	=75-	=75-	=75-	=75-	=75-	=75-
1G\	.	1B-\	.	0ryy	2b-\	.
.	.	.	.	.	1dd\	.
*	*	*Xlig	*	*	*	*
*	*	*lig	*	*	*	*
1A\	.	1A\	.	.	.	.
.	.	.	.	.	2cc\	.
=76-	=76-	=76-	=76-	=76-	=76-	=76-
!	!	!	!	!	!LO:TX:t=P:problem:kreska pseudotaktowa	!
2D,/	-det	1F/	.	0ryy	1dd\	-det
2D/	in	.	.	.	.	.
!LO:TX:t=P:problem:kreska pseudotaktowa	!	!	!	!	!	!
*	*	*Xlig	*	*	*	*
*	*	*lig	*	*	*	*
1F\	mon-	1A\	.	.	2r	.
.	.	.	.	.	2a\	in
=77-	=77-	=77-	=77-	=77-	=77-	=77-
!	!	!LO:SIC:v:t=custos B-	!	!	!	!
2C,/	-tem	1G/	.	0ryy	2cc\	mon-
2G\	/in	.	.	.	1b-\	-tem
*	*	*Xlig	*	*	*	*
!	!	!LO:LB:g=original	!	!	!	!
*	*	*lig	*	*	*	*
2B-\	mon-	1B-\	.	.	.	.
2G,\	-tem/	.	.	.	1dd\	D(o-
=78-	=78-	=78-	=78-	=78-	=78-	=78-
2D/	Do-	1A\	.	0ryy	.	.
2D/	-mi-	.	.	.	2dd\	-mi)-
*	*	*Xlig	*	*	*	*
!LO:TX:t=P:problem:kreska pseudotaktowa	!	!LO:TX:t=P:problem:kreska pseudotaktowa	!	!	!LO:TX:t=P:problem:kreska pseudotaktowa	!
1GG/	-ni	1G/	.	.	0dd\	-ni.
=79-	=79-	=79-	=79-	=79-	=79-	=79-
*	*	*lig	*	*	*	*
!	!	!	!	!	!LO:TX:t=P:problem:kreska pseudotaktowa	!
00r	.	1B-\	aut	0ryy	.	.
.	.	1G/	.	.	00r	.
*	*	*Xlig	*	*	*	*
=80-	=80-	=80-	=80-	=80-	=80-	=80-
*	*	*lig	*	*	*	*
.	.	1A\	.	0ryy	.	.
.	.	1B-\	.	.	.	.
*	*	*Xlig	*	*	*	*
=81-	=81-	=81-	=81-	=81-	=81-	=81-
!LO:TX:t=P:problem:kreska pseudotaktowa	!	!	!	!	!	!
*	*	*lig	*	*	*	*
!	!	!	!	!	!LO:TX:b:i:t=Vertat	!
0r	.	1A\	.	0ryy	.	.
!	!	!	!	!	!LO:PB:g=original	!
!	!	!LO:TX:t=P:problem:kreska pseudotaktowa	!	!	!	!
!	!	!LO:TX:t=P:problem:w S pauza za długo (00r zamiast 0r)	!	!	!	!
.	.	1G/	.	.	1g\	aut
*	*	*Xlig	*	*	*	*
=82-	=82-	=82-	=82-	=82-	=82-	=82-
1GG/	aut	1G/,	quis	0ryy	1b-\	.
1BB-/	quis-	1G/	sta-	.	1g\	quis
=83-	=83-	=83-	=83-	=83-	=83-	=83-
!	!	!LO:TX:t=P:problem:kreska pseudotaktowa	!	!	!	!
2GG/	.	1G/	-bit	0ryy	2b-\	sta-
1C/	.	.	.	.	1cc\	.
.	.	1G/	in	.	.	.
!LO:TX:t=P:problem:kreska pseudotaktowa	!	!	!	!	!	!
!LO:SIC:v:t=custos C	!	!	!	!	!	!
2GG/	-sta-	.	.	.	2b-\	.
!LO:LB:g=original	!	!	!	!	!	!
=84-	=84-	=84-	=84-	=84-	=84-	=84-
!LO:TX:t=P:problem:kreska pseudotaktowa	!	!	!	!	!	!
1C/	-bit,	1G/	lo-	0ryy	2cc,\	-bit
.	.	.	.	.	2ee\	quis
!	!	!LO:TX:t=P:problem:kreska pseudotaktowa	!	!	!	!
1r	.	1G/	-co	.	2dd\	sta-
!	!	!	!	!	!LO:TX:t=P:problem:kreska pseudotaktowa	!
.	.	.	.	.	2dd\	-bit
=85-	=85-	=85-	=85-	=85-	=85-	=85-
*	*	*lig	*	*	*	*
2r	.	1G/	san-	0ryy	2g/	in
!LO:TX:t=P:problem:kreska pseudotaktowa	!	!	!	!	!	!
2C/	in	.	.	.	2cc\	lo-
2F\	lo-	1A\	.	.	2a,\	-co
2D/	-co	.	.	.	2dd\	san-
!	!	!	!	!	!LO:TX:t=P:problem:kreska pseudotaktowa	!
*	*	*Xlig	*	*	*	*
=86-	=86-	=86-	=86-	=86-	=86-	=86-
*	*	*lig	*	*	*	*
2.A\	San-	1A\	-cto	0ryy	2.cc\	.
!	!	!	!	!	!LO:TX:t=P:problem:kreska pseudotaktowa	!
4G\	.	.	.	.	4b-\	.
2.F\	.	1F/	.	.	2a\	-cto
.	.	.	.	.	2.a\	san-
4E\	.	.	.	.	.	.
!LO:TX:t=P:problem:kreska pseudotaktowa	!	!	!	!	!	!
*	*	*Xlig	*	*	*	*
=87-	=87-	=87-	=87-	=87-	=87-	=87-
*	*	*lig	*	*	*	*
4D\	.	1A\	.	0ryy	.	.
4E\	.	.	.	.	4g/	.
!	!	!	!	!	!LO:TX:t=P:problem:kreska pseudotaktowa	!
1F\	.	.	.	.	2f/	.
.	.	1G/	.	.	2b-X\	.
2E,\	-cto	.	.	.	2g\	.
!LO:TX:t=P:problem:kreska pseudotaktowa	!	!	!	!	!	!
*	*	*Xlig	*	*	*	*
=88-	=88-	=88-	=88-	=88-	=88-	=88-
*	*	*lig	*	*	*	*
2F\	San-	1F/	.	0ryy	2a\	.
!	!	!	!	!	!LO:TX:t=P:problem:kreska pseudotaktowa	!
2.D/	.	.	.	.	2a\	-cto
.	.	1D/	.	.	2.dd\	San-
4C/	.	.	.	.	.	.
2BB-/	.	.	.	.	.	.
.	.	.	.	.	4cc\	.
!LO:TX:t=P:problem:kreska pseudotaktowa	!	!	!	!	!	!
*	*	*Xlig	*	*	*	*
=89-	=89-	=89-	=89-	=89-	=89-	=89-
*	*	*lig	*	*	*	*
2.BB-/	.	1F/	.	0ryy	2b-\	.
.	.	.	.	.	2.b-\	.
4AA/	.	.	.	.	.	.
!	!	!LO:TX:t=P:problem:kreska pseudotaktowa	!	!	!	!
2GG/	.	1G/	.	.	.	.
.	.	.	.	.	4a\	.
2GG/	-cto	.	.	.	2g/	.
!LO:TX:t=P:problem:kreska pseudotaktowa	!	!	!	!	!LO:TX:t=P:problem:kreska pseudotaktowa	!
*	*	*Xlig	*	*	*	*
=90-	=90-	=90-	=90-	=90-	=90-	=90-
2r	.	1A\	e-	0ryy	2f/	.
!LO:TX:t=P:problem:kreska pseudotaktowa	!	!	!	!	!	!
2D\	in	.	.	.	2a\	.
*	*	*lig	*	*	*	*
2G\	lo-	1G/	.	.	4g\	.
.	.	.	.	.	4a\	.
2G\	-co	.	.	.	4b-\	.
!	!	!	!	!	!LO:TX:t=P:problem:kreska pseudotaktowa	!
.	.	.	.	.	4cc\	.
=91-	=91-	=91-	=91-	=91-	=91-	=91-
2.D/	San-	1F/	.	0ryy	4dd\	.
.	.	.	.	.	4a\	.
.	.	.	.	.	1dd\	.
4C/	.	.	.	.	.	.
*	*	*Xlig	*	*	*	*
*	*	*lig	*	*	*	*
2BB-/	.	1G/	.	.	.	.
2C,/	-cto	.	.	.	4cc\	.
!	!	!	!	!	!LO:TX:t=P:problem:kreska pseudotaktowa	!
!	!	!	!	!	!LO:SIC:v:t=custos a	!
.	.	.	.	.	4b-\	.
!	!	!	!	!	!LO:LB:g=original	!
=92-	=92-	=92-	=92-	=92-	=92-	=92-
!LO:TX:t=P:problem:kreska pseudotaktowa	!	!	!	!	!	!
1D\	e-	1D/	.	0ryy	2a\	-cto
.	.	.	.	.	2a\	e-
*	*	*Xlig	*	*	*	*
!LO:TX:t=P:problem:kreska pseudotaktowa	!	!	!	!	!	!
!LO:TX:b:t=Cito	!	!	!	!	!	!
!LO:SIC:v:t=custos D	!	!LO:TX:t=P:problem:kreska pseudotaktowa	!	!	!LO:TX:t=P:problem:kreska pseudotaktowa	!
1GG/,	-jus	1D/,	-jus	.	1bn\	-jus.
!LO:PB:g=original	!	!	!	!	!	!
=93-	=93-	=93-	=93-	=93-	=93-	=93-
!	!	!	!	!	!LO:TX:t=P:problem:kreska pseudotaktowa	!
2r	.	1F/	in-	0ryy	1r	.
2.D/	In-	.	.	.	.	.
.	.	1F/	-no-	.	2r	.
4D/	-no-	.	.	.	.	.
!LO:TX:t=P:problem:kreska pseudotaktowa	!	!	!	!	!	!
2D/	-cens	.	.	.	2.a\	In-
=94-	=94-	=94-	=94-	=94-	=94-	=94-
*	*	*lig	*	*	*	*
2.F\	ma-	1F/	-cens	0ryy	.	-no-
.	.	.	.	.	4a\	-cens
!	!	!	!	!	!LO:TX:t=P:problem:kreska pseudotaktowa	!
.	.	.	.	.	2a\	ma-
8E\L	.	.	.	.	.	.
!LO:TX:t=P:problem:kreska pseudotaktowa	!	!	!	!	!	!
8D\J	.	.	.	.	.	.
4C/	.	1G/,	.	.	2.cc\	.
4D/	.	.	.	.	.	.
4E/	.	.	.	.	.	.
4F/	.	.	.	.	8b-\L	.
.	.	.	.	.	8a\J	.
!LO:TX:t=P:problem:kreska pseudotaktowa	!	!	!	!	!LO:TX:t=P:problem:kreska pseudotaktowa	!
*	*	*Xlig	*	*	*	*
=95-	=95-	=95-	=95-	=95-	=95-	=95-
*	*	*lig	*	*	*	*
2.G\	.	1G/	ma-	0ryy	4g\	.
.	.	.	.	.	4a\	.
.	.	.	.	.	4b-\	.
8F\L	.	.	.	.	4cc\	.
!LO:TX:t=P:problem:kreska pseudotaktowa	!	!	!	!	!	!
8E\J	.	.	.	.	.	.
4D\	.	1F/	.	.	2.dd\	.
4E\	.	.	.	.	.	.
4F\	.	.	.	.	.	.
!LO:TX:t=P:problem:kreska pseudotaktowa	!	!	!	!	!LO:TX:t=P:problem:kreska pseudotaktowa	!
4G\	.	.	.	.	8cc\L	.
.	.	.	.	.	8b-\J	.
*	*	*Xlig	*	*	*	*
=96-	=96-	=96-	=96-	=96-	=96-	=96-
*	*	*lig	*	*	*	*
2.A\	.	1E/	.	0ryy	4a\	.
.	.	.	.	.	4b-\	.
.	.	.	.	.	4cc\	.
!LO:TX:t=P:problem:kreska pseudotaktowa	!	!	!	!	!	!
4AA/	-ni-	.	.	.	4dd\	.
2AA,/	-bus	1C/	.	.	2.ee\	.
2AA/	et	.	.	.	.	.
.	.	.	.	.	4cc\	-ni-
!LO:TX:t=P:problem:kreska pseudotaktowa	!	!	!	!	!	!
*	*	*Xlig	*	*	*	*
!	!	!LO:LB:g=original	!	!	!	!
=97-	=97-	=97-	=97-	=97-	=97-	=97-
*	*	*lig	*	*	*	*
2.D\	mun-	1D/	.	0ryy	2a,\	-bus
.	.	.	.	.	2dd\	et
!LO:TX:t=P:problem:kreska pseudotaktowa	!	!	!	!	!	!
4E\	.	.	.	.	.	.
1F\	.	1F/	.	.	(2.a\	mun-
.	.	.	.	.	4b-\)	.
*	*	*Xlig	*	*	*	*
=98-	=98-	=98-	=98-	=98-	=98-	=98-
*	*	*lig	*	*	*	*
2C,/	-do	1E/	.	0ryy	1cc\	.
!LO:TX:t=P:problem:kreska pseudotaktowa	!	!	!	!	!	!
2.E\	cor-	.	.	.	.	.
.	.	1G/	.	.	2g\	.
4F\	.	.	.	.	.	.
2G\	.	.	.	.	2b-\	.
!LO:TX:t=P:problem:kreska pseudotaktowa	!	!	!	!	!	!
*	*	*Xlig	*	*	*	*
=99-	=99-	=99-	=99-	=99-	=99-	=99-
*	*	*lig	*	*	*	*
2D,/	-de	1A\	.	0ryy	2a\	-do
1D\	mun-	.	.	.	1a\	cor-
.	.	1F/	.	.	.	.
2BB-/	-do	.	.	.	1b-\	.
!LO:TX:t=P:problem:kreska pseudotaktowa	!	!	!	!	!	!
*	*	*Xlig	*	*	*	*
=100-	=100-	=100-	=100-	=100-	=100-	=100-
*	*	*lig	*	*	*	*
(2GG/	cor-	1E/	.	0ryy	.	.
!LO:TX:t=P:problem:kreska pseudotaktowa	!	!	!	!	!	!
2AA/)	.	.	.	.	2a\	.
!LO:TX:t=P:problem:kreska pseudotaktowa	!	!	!	!	!	!
1D\	-de	1D/	.	.	0a\	-de
*	*	*Xlig	*	*	*	*
=101-	=101-	=101-	=101-	=101-	=101-	=101-
!LO:TX:t=P:problem:kreska pseudotaktowa	!	!	!	!	!LO:TX:t=P:problem:kreska pseudotaktowa	!
1r	.	1D/	-ni-	0ryy	.	.
*	*	*lig	*	*	*	*
!	!	!	!	!	!LO:TX:t=P:problem:kreska pseudotaktowa	!
2r	.	1D/	-bus	.	0r	.
1D\	quis	.	.	.	.	.
=102-	=102-	=102-	=102-	=102-	=102-	=102-
.	.	1F/	.	0ryy	.	.
2F\	sta-	.	.	.	.	.
!LO:TX:t=P:problem:kreska pseudotaktowa	!	!	!	!	!	!
*	*	*Xlig	*	*	*	*
2D\	-bit	1D/	.	.	2r	.
2D\	in	.	.	.	1a\	quis
=103-	=103-	=103-	=103-	=103-	=103-	=103-
0F\	lo-	0F/	.	0ryy	.	sta-
.	.	.	.	.	2cc\	.
.	.	.	.	.	2a\	.
.	.	.	.	.	1dd\	.
=104-	=104-	=104-	=104-	=104-	=104-	=104-
!LO:TX:t=P:problem:kreska pseudotaktowa	!	!	!	!	!	!
!LO:SIC:v:t=custos D	!	!	!	!	!	!
*	*	*lig	*	*	*	*
1E\	.	1E/	.	0ryy	.	.
.	.	.	.	.	2cc\	.
!LO:LB:g=original	!	!	!	!	!LO:TX:t=P:problem:kreska pseudotaktowa	!
2D,\	-co	1D/	.	.	1dd\	-bit
2D\	in	.	.	.	.	.
!LO:TX:t=P:problem:kreska pseudotaktowa	!	!	!	!	!	!
*	*	*Xlig	*	*	*	*
!	!	!	!	!	!LO:LB:g=original	!
=105-	=105-	=105-	=105-	=105-	=105-	=105-
*	*	*lig	*	*	*	*
1F\	lo-	1F/	.	0ryy	2a\	in
.	.	.	.	.	1cc\	lo-
2C,/	-co	1C/	.	.	.	.
2C/	in	.	.	.	1g\	-co
!LO:TX:t=P:problem:kreska pseudotaktowa	!	!	!	!	!	!
*	*	*Xlig	*	*	*	*
=106-	=106-	=106-	=106-	=106-	=106-	=106-
2.GG/	lo-	1BB-/,	.	0ryy	.	.
!	!	!	!	!	!LO:TX:t=P:problem:kreska pseudotaktowa	!
.	.	.	.	.	2b-X\	.
!LO:TX:t=P:problem:kreska pseudotaktowa	!	!	!	!	!	!
4AA/	-co	.	.	.	.	.
*	*	*lig	*	*	*	*
2BB-/	san-	1BB-/	et	.	1dd\	san-
!LO:TX:t=P:problem:kreska pseudotaktowa	!	!	!	!	!	!
2GG/	-cto	.	.	.	.	.
=107-	=107-	=107-	=107-	=107-	=107-	=107-
4AA/	e-	1C/	.	0ryy	2a,\	-cto
4BB-/	.	.	.	.	.	.
4C/	.	.	.	.	2.a\	lo-
4AA/	.	.	.	.	.	.
!LO:TX:t=P:problem:kreska pseudotaktowa	!	!	!	!	!	!
*	*	*Xlig	*	*	*	*
*	*	*lig	*	*	*	*
2D\	.	1D/	.	.	.	.
.	.	.	.	.	4g/	.
!LO:TX:t=P:problem:kreska pseudotaktowa	!	!	!	!	!	!
2D\	-jus	.	.	.	4f/	.
!	!	!	!	!	!LO:TX:t=P:problem:kreska pseudotaktowa	!
.	.	.	.	.	4e/	.
=108-	=108-	=108-	=108-	=108-	=108-	=108-
!	!	!LO:TX:t=P:problem:kreska pseudotaktowa	!	!	!	!
0r	.	1F/,	.	0ryy	2f,/	-co
.	.	.	.	.	2.cc\	San-
*	*	*Xlig	*	*	*	*
.	.	1C/	mun-	.	.	.
.	.	.	.	.	4b-\	.
.	.	.	.	.	4a\	.
.	.	.	.	.	4g\	.
=109-	=109-	=109-	=109-	=109-	=109-	=109-
!LO:TX:t=P:problem:kreska pseudotaktowa	!	!LO:TX:t=P:problem:kreska pseudotaktowa	!	!	!	!
1r	.	1D/,	-do	0ryy	2f/	.
.	.	.	.	.	2d/	-cto
*	*	*lig	*	*	*	*
2r	.	1F/	Cor-	.	2a\	e-
!	!	!	!	!	!LO:TX:t=P:problem:kreska pseudotaktowa	!
2.D/	in-	.	.	.	2a\	-jus
=110-	=110-	=110-	=110-	=110-	=110-	=110-
.	.	1D/	.	0ryy	2r	.
4D/	-no-	.	.	.	.	.
2D/	-cens	.	.	.	2.a\	In-
!LO:TX:t=P:problem:kreska pseudotaktowa	!	!	!	!	!	!
*	*	*Xlig	*	*	*	*
*	*	*lig	*	*	*	*
2.F\	ma-	1F/	.	.	.	.
.	.	.	.	.	4a\	-no-
!	!	!	!	!	!LO:TX:t=P:problem:kreska pseudotaktowa	!
.	.	.	.	.	2a\	-cens
8E\L	.	.	.	.	.	.
!LO:TX:t=P:problem:kreska pseudotaktowa	!	!	!	!	!	!
8D\J	.	.	.	.	.	.
=111-	=111-	=111-	=111-	=111-	=111-	=111-
4C/	.	1G/	.	0ryy	2.cc\	ma-
4D/	.	.	.	.	.	.
4E/	.	.	.	.	.	.
4F/	.	.	.	.	8b-\L	.
.	.	.	.	.	8a\J	.
!LO:TX:t=P:problem:kreska pseudotaktowa	!	!	!	!	!LO:TX:t=P:problem:kreska pseudotaktowa	!
*	*	*Xlig	*	*	*	*
*	*	*lig	*	*	*	*
2.G\	.	1G/	-de.	.	4g\	.
.	.	.	.	.	4a\	.
.	.	.	.	.	4b-\	.
8F\L	.	.	.	.	4cc\	.
!LO:TX:t=P:problem:kreska pseudotaktowa	!	!	!	!	!	!
8E\J	.	.	.	.	.	.
=112-	=112-	=112-	=112-	=112-	=112-	=112-
2.D\	.	1A\	.	0ryy	2.dd\	.
4D\	-ni-	.	.	.	8cc\L	.
.	.	.	.	.	8b-\J	.
!LO:TX:t=P:problem:kreska pseudotaktowa	!	!	!	!	!LO:TX:t=P:problem:kreska pseudotaktowa	!
*	*	*Xlig	*	*	*	*
*	*	*lig	*	*	*	*
2D,\	-b(us)	1F/	.	.	2a\	.
!LO:TX:t=P:problem:kreska pseudotaktowa	!	!	!	!	!	!
2D\	ma-	.	.	.	1dd\	.
=113-	=113-	=113-	=113-	=113-	=113-	=113-
2AA/	.	1E/	.	0ryy	.	.
2AA/	-ni-	.	.	.	2cc#X\	-ni-
!LO:TX:t=P:problem:kreska pseudotaktowa	!	!	!	!	!	!
*	*	*Xlig	*	*	*	*
*	*	*lig	*	*	*	*
2D,\	-bus	1F/	.	.	2dd\	-bus
!LO:TX:t=P:problem:kreska pseudotaktowa	!	!	!	!	!LO:TX:t=P:problem:kreska pseudotaktowa	!
2F\	et	.	.	.	2r	.
=114-	=114-	=114-	=114-	=114-	=114-	=114-
2F\	mun-	1G/	.	0ryy	2r	.
2E\	-do	.	.	.	2cc\	et
!LO:TX:t=P:problem:kreska pseudotaktowa	!	!	!	!	!	!
*	*	*Xlig	*	*	*	*
4F\	Cor-	0F/	.	.	2cc\	mun-
4G\	.	.	.	.	.	.
!	!	!	!	!	!LO:TX:t=P:problem:kreska pseudotaktowa	!
!	!	!	!	!	!LO:SIC:v:t=custos dd	!
4F\	.	.	.	.	2a\	-do
4E\	.	.	.	.	.	.
!	!	!	!	!	!LO:LB:g=original	!
=115-	=115-	=115-	=115-	=115-	=115-	=115-
2D,/	-de	.	.	0ryy	4dd\	cor-
.	.	.	.	.	4cc\	.
!LO:TX:t=P:problem:kreska pseudotaktowa	!	!	!	!	!	!
2D/	et	.	.	.	4b-\	.
!	!	!	!	!	!LO:TX:t=P:problem:kreska pseudotaktowa	!
.	.	.	.	.	4a\	.
!LO:LB:g=original	!	!	!	!	!	!
2D/	mun-	1E/	.	.	2g\	.
!LO:TX:t=P:problem:kreska pseudotaktowa	!	!	!	!	!	!
2C/	-do	.	.	.	2a\	.
=116-	=116-	=116-	=116-	=116-	=116-	=116-
*	*	*lig	*	*	*	*
1D\	cor-	1D/	.	0ryy	2a,\	-de
.	.	.	.	.	2f/	et
2AA,/	-de	1E/	.	.	1a\	mun-
2D/	et	.	.	.	.	.
!LO:TX:t=P:problem:kreska pseudotaktowa	!	!	!	!	!	!
*	*	*Xlig	*	*	*	*
=117-	=117-	=117-	=117-	=117-	=117-	=117-
*	*	*col	*	*	*	*
1D\	mun-	1.F/	.	0ryy	2f,/	-do
.	.	.	.	.	2a\	et
!LO:TX:t=P:problem:kreska pseudotaktowa	!	!	!	!	!	!
1AA/	-do	.	.	.	1a\	mun-
.	.	2E/	.	.	.	.
*	*	*Xcol	*	*	*	*
=118-	=118-	=118-	=118-	=118-	=118-	=118-
!	!	!LO:TX:a:t=4	!	!	!	!
2D\	cor-	00.D/	.	0ryy	2a\	-do
1GG/	.	.	.	.	1b-\	cor-
2D\	.	.	.	.	2a\	.
=119-	=119-	=119-	=119-	=119-	=119-	=119-
1GG/	.	.	.	00ryy	1b-\	.
0.D\;	-de	.	.	.	0.a\;	-de.
==	==	==	==	==	==	==
*-	*-	*-	*-	*-	*-	*-
!!!system-decoration: [(s1,s2,s3,s4)]
!!!RDF**kern: > = above
!!!RDF**kern: < = below
!!!ENC: Andrzej Borzym
!!!END: 2021-03-03
!!!EED: Leszek Kubiak
!!!EST: 2021-03-19
